!!!COM: Anon.
!!!OTL: Gosho no Oniwa
!!!OTC: Japanese Popular Music: A Collection of The Popular Music of Japan Rendered in to the Staff notation.
!!!CNT: Nippon, Japanese
!!!TXO: Nippon, Japan
!!!OCY: Nippon, Japan
!!!ODT: <1892///
!!!PSR: S. Miki & Co.
!!!PSP: Osaka, Nippon
!!!PDT: 1892///
!!!PPE: Y Nagai & K. Kobatake
!!!PED: Revised Second Edition
!!!PPG: page 80-81
!! Moderato
**kern	**silbe
*ICstr	*Lnippon
*ICvox	*
*Ikoto	*
*Ivox	*
*clefG2	*
*k[]	*
*M2/4	*
=1-	=1-
4e	.
8a	.
8a	.
=2	=2
8b	.
8b	.
8cc	.
8b	.
=3	=3
8a	.
8a	.
8e	.
8f	.
=4	=4
8e	.
8r	.
8f	.
8r	.
=5	=5
8B	.
8r	.
8a	.
8a	.
=6	=6
8a	.
8r	.
8a	.
8r	.
=7	=7
8b	.
8a	.
8f	.
8a	.
=8	=8
4b	.
8b	.
8b	.
=9	=9
4B	.
4a	.
=10	=10
4b	.
8b	.
8b	.
=11	=11
4B	.
4a	.
=12	=12
4b	.
4r	.
=13	=13
(4a	.
8f	.
8e)	.
=14	=14
(4a	.
4b)	.
=15	=15
4B	.
(4cc	.
=16	=16
4b	.
4a)	.
=17	=17
(4f	.
4a)	.
=18	=18
(4f	.
4e)	.
=19	=19
8e	.
8r	.
8cc	.
8cc	.
=20	=20
4cc	.
4b	.
=21	=21
8a	.
8cc	.
8b	.
8a	.
=22	=22
4f	.
4e	.
=23	=23
8f	.
4a	.
8a	.
=24	=24
4a	.
4a	.
=25	=25
8f	.
8f	.
8r	.
8a	.
=26	=26
4f	.
4e	.
=27	=27
8r	.
8b	.
8r	.
8b	.
=28	=28
4b	.
4d	.
=29	=29
8ee	.
8ee	.
8e	.
8ee	.
=30	=30
4ff	.
4ee	.
=31	=31
8B	.
8r	.
8a	.
8a	.
=32	=32
8b	.
8b	.
8cc	.
8b	.
=33	=33
8a	.
8a	.
8e	.
8f	.
=34	=34
8e	.
8r	.
8f	.
8r	.
=35	=35
8B	.
8r	.
8a	.
8a	.
=36	=36
8a	.
8r	.
8a	.
8r	.
=37	=37
8b	.
8a	.
8f	.
8a	.
=38	=38
4b	.
8b	.
8b	.
=39	=39
4B	.
4a	.
=40	=40
4b	.
8b	.
8b	.
=41	=41
4B	.
4a	.
=42	=42
4b	.
4r	.
=43	=43
(4a	.
8f	.
8e)	.
=44	=44
4a	.
4b	.
=45	=45
4B	.
(4cc	.
=46	=46
4b	.
4a)	.
=47	=47
4f	.
8r	.
8d	.
=48	=48
4e	.
4f	.
=49	=49
8a	.
8cc	.
8b	.
8a	.
=50	=50
4f	.
8a	.
8b	.
=51	=51
8e	.
4e	.
8c	.
=52	=52
4B	.
8e	.
8e	.
=53	=53
8r	.
8b	.
8r	.
8b	.
=54	=54
4b	.
4dd	.
=55	=55
8ee	.
8ee	.
8e	.
8ee	.
=56	=56
4ff	.
4ee	.
=57	=57
4e	.
8a	.
8a	.
=58	=58
8b	.
8b	.
8cc	.
8b	.
=59	=59
8a	.
8a	.
8e	.
8f	.
=60	=60
4e	.
4r	.
==	==
*-	*-
!!!ENC: David Huron
!!!RDT: 2000/1/30
!!!EEV: Release 1.0
!!!ELF: 22/28
!!!YER: 2000/2/1
!!!YEM: Copyright David Huron, 2000
!!!YEN: United States of America
